assets/emojis/GrinningFacewithSmilingEyes.svg

<svg width="126" height="125" viewBox="0 0 126 125" fill="none" xmlns="http://www.w3.org/2000/svg">
<circle cx="62.8965" cy="62.3496" r="62.3496" fill="#F9B42F"/>
<path opacity="0.3" fill-rule="evenodd" clip-rule="evenodd" d="M113.832 98.5209C102.511 110.112 86.7084 117.308 69.2255 117.308C34.7908 117.308 6.87591 89.3929 6.87591 54.9582C6.87591 41.5625 11.1004 29.1535 18.2897 18.9907C7.31201 30.2299 0.546875 45.6016 0.546875 62.5535C0.546875 96.9882 28.4617 124.903 62.8965 124.903C83.9355 124.903 102.541 114.482 113.832 98.5209Z" fill="#BC8417"/>
<path d="M65.0945 84.6079C57.7501 84.6079 51.4675 82.0594 49.4677 78.2545C49.2699 77.8484 49.235 77.3821 49.3699 76.9511C49.5047 76.5201 49.7993 76.157 50.1932 75.9361C50.3987 75.8247 50.6242 75.755 50.8567 75.7312C51.0892 75.7074 51.3241 75.7298 51.5479 75.7973C51.7717 75.8648 51.9799 75.9759 52.1605 76.1242C52.3411 76.2726 52.4905 76.4553 52.6001 76.6617C53.7327 78.8385 58.5111 81.1392 65.0945 81.1392C71.678 81.1392 76.7572 78.75 77.6951 76.4316C77.7834 76.2155 77.9135 76.0189 78.0778 75.853C78.2421 75.6871 78.4374 75.5552 78.6527 75.4648C78.868 75.3744 79.099 75.3273 79.3325 75.3262C79.5659 75.3251 79.7974 75.3699 80.0135 75.4583C80.2296 75.5466 80.4263 75.6766 80.5922 75.8409C80.758 76.0052 80.89 76.2006 80.9803 76.4159C81.0707 76.6311 81.1178 76.8621 81.1189 77.0956C81.1201 77.3291 81.0752 77.5605 80.9869 77.7766C79.3056 81.7763 72.7752 84.6079 65.0945 84.6079Z" fill="#2C2A46"/>
<path d="M46.5854 61.4002C45.8689 61.4002 45.1817 61.1197 44.675 60.6205C44.1683 60.1212 43.8836 59.4441 43.8836 58.7381C43.8836 57.8343 43.5193 56.9676 42.8707 56.3286C42.2222 55.6896 41.3425 55.3306 40.4253 55.3306C39.5081 55.3306 38.6285 55.6896 37.98 56.3286C37.3314 56.9676 36.9671 57.8343 36.9671 58.7381C36.9671 59.4441 36.6824 60.1212 36.1757 60.6205C35.669 61.1197 34.9818 61.4002 34.2653 61.4002C33.5487 61.4002 32.8615 61.1197 32.3548 60.6205C31.8481 60.1212 31.5635 59.4441 31.5635 58.7381C31.5635 56.4223 32.4971 54.2013 34.1591 52.5638C35.821 50.9263 38.075 50.0063 40.4253 50.0063C42.7757 50.0063 45.0297 50.9263 46.6916 52.5638C48.3536 54.2013 49.2872 56.4223 49.2872 58.7381C49.2872 59.4441 49.0026 60.1212 48.4959 60.6205C47.9892 61.1197 47.302 61.4002 46.5854 61.4002Z" fill="#2C2A46"/>
<path d="M94.6929 61.4002C93.9763 61.4002 93.2891 61.1197 92.7824 60.6205C92.2757 60.1212 91.9911 59.4441 91.9911 58.7381C91.9911 57.8343 91.6267 56.9676 90.9782 56.3286C90.3296 55.6896 89.45 55.3306 88.5328 55.3306C87.6156 55.3306 86.7359 55.6896 86.0874 56.3286C85.4388 56.9676 85.0745 57.8343 85.0745 58.7381C85.0745 59.4441 84.7898 60.1212 84.2831 60.6205C83.7765 61.1197 83.0892 61.4002 82.3727 61.4002C81.6561 61.4002 80.9689 61.1197 80.4622 60.6205C79.9555 60.1212 79.6709 59.4441 79.6709 58.7381C79.6709 56.4223 80.6046 54.2013 82.2665 52.5638C83.9284 50.9263 86.1825 50.0063 88.5328 50.0063C90.8831 50.0063 93.1371 50.9263 94.7991 52.5638C96.461 54.2013 97.3946 56.4223 97.3946 58.7381C97.3946 59.4441 97.11 60.1212 96.6033 60.6205C96.0966 61.1197 95.4094 61.4002 94.6929 61.4002Z" fill="#2C2A46"/>
</svg>

<svg xmlns="http://www.w3.org/2000/svg" width="126" height="125" fill="none" viewBox="0 0 126 125"><circle cx="62.897" cy="62.35" r="62.35" fill="#f9b42f"/><path fill="#bc8417" fill-rule="evenodd" d="M113.832 98.52c-11.321 11.592-27.124 18.788-44.606 18.788-34.435 0-62.35-27.915-62.35-62.35 0-13.395 4.224-25.804 11.414-35.967C7.312 30.23.547 45.6.547 62.554c0 34.434 27.915 62.349 62.35 62.349 21.039 0 39.644-10.421 50.935-26.382" clip-rule="evenodd" opacity=".3"/><path fill="#2c2a46" d="M65.095 84.608c-7.345 0-13.627-2.549-15.627-6.354a1.77 1.77 0 0 1 .725-2.318 1.77 1.77 0 0 1 2.407.726c1.133 2.176 5.911 4.477 12.494 4.477s11.663-2.389 12.601-4.707a1.778 1.778 0 0 1 3.292 1.345c-1.681 4-8.212 6.83-15.892 6.83M46.585 61.4a2.72 2.72 0 0 1-1.91-.78 2.64 2.64 0 0 1-.791-1.882c0-.904-.365-1.77-1.013-2.41a3.5 3.5 0 0 0-2.446-.997c-.917 0-1.796.359-2.445.998a3.38 3.38 0 0 0-1.013 2.41c0 .705-.285 1.382-.791 1.882a2.72 2.72 0 0 1-1.91.78 2.73 2.73 0 0 1-1.911-.78 2.64 2.64 0 0 1-.791-1.883c0-2.316.933-4.537 2.595-6.174a8.93 8.93 0 0 1 6.266-2.558c2.35 0 4.605.92 6.267 2.558a8.67 8.67 0 0 1 2.595 6.174c0 .706-.284 1.383-.791 1.883a2.72 2.72 0 0 1-1.91.78m48.107-.001c-.717 0-1.404-.28-1.91-.78a2.64 2.64 0 0 1-.792-1.882c0-.904-.364-1.77-1.013-2.41a3.5 3.5 0 0 0-2.445-.997c-.917 0-1.797.359-2.446.998a3.38 3.38 0 0 0-1.013 2.41c0 .705-.284 1.382-.79 1.882a2.73 2.73 0 0 1-3.821 0 2.64 2.64 0 0 1-.792-1.883c0-2.316.934-4.537 2.595-6.174a8.93 8.93 0 0 1 6.267-2.558c2.35 0 4.604.92 6.266 2.558a8.67 8.67 0 0 1 2.596 6.174c0 .706-.285 1.383-.792 1.883a2.72 2.72 0 0 1-1.91.78"/></svg>
